X: 4
T: The Connaughtman's Rambles
R: jig
M: 6/8
L: 1/8
K: Dmaj
|: BB/A/G |FAA dAA | B^AB d=Ad | FA/A/A dg/f/e | dB^A B=AG |
FAA d2 A | B^AB dd/e/f | gfe f2 e | dB^A :|
|: B2 g |fbb f/g/ag | f^ef d=eg | fb/b/b fa/a/a | fe^d e=dg |
f2 b fag | f^ef d2 f | gg/f/e fe/e/e | dB^A :|


Tune 19	Setting 28759

